www/assets/icons/sports_tennis.svg

<svg width="24" height="24" viewBox="0 0 24 24" xmlns="http://www.w3.org/2000/svg" fill='currentColor'><path d="M19.6 2.48874C17.26 0.148737 12.98 0.618737 10.05 3.54874C8.44998 5.14874 7.52998 7.41874 7.50998 9.00874C7.48998 10.5887 7.76998 12.8987 6.15998 14.5087L1.91998 18.7487L3.33998 20.1687L7.57998 15.9287C9.18998 14.3187 11.5 14.5987 13.08 14.5787C14.66 14.5587 16.94 13.6387 18.54 12.0387C21.46 9.10874 21.94 4.82874 19.6 2.48874ZM10.4 11.6787C8.86998 10.1487 9.34998 7.06874 11.46 4.95874C13.57 2.84874 16.64 2.36874 18.18 3.89874C19.71 5.42874 19.23 8.50874 17.12 10.6187C15.01 12.7287 11.94 13.2087 10.4 11.6787Z"/><path d="M18.08 16.9987C18.61 16.9987 19.12 17.2087 19.49 17.5887C20.27 18.3687 20.27 19.6387 19.49 20.4187C19.12 20.7887 18.61 20.9987 18.08 20.9987C17.55 20.9987 17.04 20.7887 16.67 20.4087C15.89 19.6287 15.89 18.3587 16.67 17.5787C17.04 17.2087 17.55 16.9987 18.08 16.9987ZM18.08 14.9987C17.06 14.9987 16.03 15.3887 15.25 16.1687C13.69 17.7287 13.69 20.2587 15.25 21.8287C16.03 22.6087 17.06 22.9987 18.08 22.9987C19.1 22.9987 20.13 22.6087 20.91 21.8287C22.47 20.2687 22.47 17.7387 20.91 16.1687C20.13 15.3887 19.1 14.9987 18.08 14.9987Z"/></svg>

<svg xmlns="http://www.w3.org/2000/svg" width="24" height="24" viewBox="0 0 24 24" fill='currentColor'><path d="M19.6 2.489c-2.34-2.34-6.62-1.87-9.55 1.06-1.6 1.6-2.52 3.87-2.54 5.46-.02 1.58.26 3.89-1.35 5.5l-4.24 4.24 1.42 1.42 4.24-4.24c1.61-1.61 3.92-1.33 5.5-1.35s3.86-.94 5.46-2.54c2.92-2.93 3.4-7.21 1.06-9.55m-9.2 9.19c-1.53-1.53-1.05-4.61 1.06-6.72s5.18-2.59 6.72-1.06c1.53 1.53 1.05 4.61-1.06 6.72s-5.18 2.59-6.72 1.06m7.68 5.32c.53 0 1.04.21 1.41.59.78.78.78 2.05 0 2.83-.37.37-.88.58-1.41.58s-1.04-.21-1.41-.59c-.78-.78-.78-2.05 0-2.83.37-.37.88-.58 1.41-.58m0-2a3.998 3.998 0 0 0-2.83 6.83c.78.78 1.81 1.17 2.83 1.17a3.998 3.998 0 0 0 2.83-6.83 4 4 0 0 0-2.83-1.17"/></svg>
